src/standard/objects/trophy.svg

<svg xmlns="http://www.w3.org/2000/svg" viewBox="0 0 36 36">
  <path d="M27 30.38H9a.62.62 0 1 0 0 1.24h18a.62.62 0 0 0 0-1.24Zm3-23h-3.38V5a.62.62 0 0 0-.62-.62H10a.62.62 0 0 0-.62.62v2.38H6a.62.62 0 0 0-.62.62v5A3.62 3.62 0 0 0 9 16.62h.53a8.63 8.63 0 0 0 7.85 7v4.79H12a.62.62 0 1 0 0 1.24h12a.62.62 0 0 0 0-1.24h-5.38v-4.82a8.63 8.63 0 0 0 7.85-7H27A3.62 3.62 0 0 0 30.62 13V8a.62.62 0 0 0-.62-.62Zm-21 8A2.39 2.39 0 0 1 6.62 13V8.62h2.76v6.76Zm9 7A7.39 7.39 0 0 1 10.62 15V5.62h14.76V15A7.39 7.39 0 0 1 18 22.38ZM29.38 13A2.39 2.39 0 0 1 27 15.38h-.39V8.62h2.76Z"/>
</svg>

<svg id="b010e2f5-5c54-48eb-abb4-deb41e1b1434" data-name="Icon" xmlns="http://www.w3.org/2000/svg" viewBox="0 0 36 36">
  <g>
    <path d="M27,30.38H9a.62.62,0,1,0,0,1.24H27a.62.62,0,0,0,0-1.24Z"/>
    <path d="M30,7.38H26.62V5A.62.62,0,0,0,26,4.38H10A.62.62,0,0,0,9.38,5V7.38H6A.62.62,0,0,0,5.38,8v5A3.62,3.62,0,0,0,9,16.62h.53a8.63,8.63,0,0,0,7.85,7v4.79H12a.62.62,0,1,0,0,1.24H24a.62.62,0,0,0,0-1.24H18.62V23.59a8.63,8.63,0,0,0,7.85-7H27A3.62,3.62,0,0,0,30.62,13V8A.62.62,0,0,0,30,7.38Zm-21,8A2.39,2.39,0,0,1,6.62,13V8.62H9.38V15c0,.13,0,.25,0,.38Zm9,7A7.39,7.39,0,0,1,10.62,15V5.62H25.38V15A7.39,7.39,0,0,1,18,22.38ZM29.38,13A2.39,2.39,0,0,1,27,15.38h-.39c0-.13,0-.25,0-.38V8.62h2.76Z"/>
  </g>
</svg>
